trafik_levhalari/tehlike_uyari/21.svg

<svg enable-background="new 0 0 240.7 211.2" version="1.1" viewBox="0 0 240.7 211.2" xmlns="http://www.w3.org/2000/svg"><style type="text/css">.st0{fill:#FFFFFF;stroke:#000000;stroke-width:0.75;stroke-linecap:round;stroke-linejoin:round;}.st1{fill:#EF2028;}.st2{fill:#E32521;}.st3{fill:#F0E40B;}.st4{fill:#67B22F;}</style><path class="st0" d="m237.2 192c0.9 1.4 1.6 2.8 2.3 4.2 0.5 1.2 0.7 2.4 0.7 3.7 0 1.9-0.4 3.7-1.3 5.3-1.4 2.4-3.6 4.2-6.3 5.1-1.6 0.4-3.2 0.5-4.9 0.4h-215.8c-0.8 0-1.6 0-2.4-0.1-3.4-0.5-6.4-2.5-8-5.6-0.9-1.8-1.3-3.8-1.1-5.8s0.9-3.9 2-5.5l108.2-187.2c2.6-5.4 9-7.7 14.4-5.1 2.4 1.1 4.3 3.1 5.3 5.6l106.9 185z"/><path class="st1" d="m11.8 208.3c-3.7 0-6.3-1.3-7.9-4.1-1.4-2.7-1.4-5.9 0.2-8.5l109.2-188.8c1.6-2.5 4.4-4.1 7.4-4 3.2 0 5.4 1.8 7 4.5l108.9 188.4c1.6 2.6 1.6 5.9 0 8.6-1.6 2.5-4.4 4-7.4 3.9h-217.4zm18.3-19.2h180.3l-90.1-156.1-90.2 156.1z"/><path d="m120.4 61.9c11.7 0 21.3 9.5 21.3 21.3v79.3c0 11.7-9.5 21.3-21.3 21.3-11.7 0-21.3-9.5-21.3-21.3v-79.4c0-11.7 9.5-21.2 21.3-21.2z"/><circle class="st2" cx="120.3" cy="83.2" r="18.5"/><circle class="st3" cx="120.3" cy="122.7" r="18.5"/><circle class="st4" cx="120.3" cy="162.3" r="18.5"/></svg>

<?xml version="1.0" encoding="utf-8"?>
<!-- Generator: Adobe Illustrator 25.2.3, SVG Export Plug-In . SVG Version: 6.00 Build 0)  -->
<svg version="1.1" id="Layer_1" xmlns="http://www.w3.org/2000/svg" xmlns:xlink="http://www.w3.org/1999/xlink" x="0px" y="0px"
	 viewBox="0 0 240.7 211.2" style="enable-background:new 0 0 240.7 211.2;" xml:space="preserve">
<style type="text/css">
	.st0{fill:#FFFFFF;stroke:#000000;stroke-width:0.75;stroke-linecap:round;stroke-linejoin:round;}
	.st1{fill:#EF2028;}
	.st2{fill:#E32521;}
	.st3{fill:#F0E40B;}
	.st4{fill:#67B22F;}
</style>
<g id="Layer_2_1_">
	<g id="svg48705">
		<g id="layer1">
			<path id="path2818-7" class="st0" d="M237.2,192c0.9,1.4,1.6,2.8,2.3,4.2c0.5,1.2,0.7,2.4,0.7,3.7c0,1.9-0.4,3.7-1.3,5.3
				c-1.4,2.4-3.6,4.2-6.3,5.1c-1.6,0.4-3.2,0.5-4.9,0.4H11.9c-0.8,0-1.6,0-2.4-0.1c-3.4-0.5-6.4-2.5-8-5.6c-0.9-1.8-1.3-3.8-1.1-5.8
				c0.2-2,0.9-3.9,2-5.5L110.6,6.5c2.6-5.4,9-7.7,14.4-5.1c2.4,1.1,4.3,3.1,5.3,5.6L237.2,192L237.2,192z"/>
			<path id="path2820-2" class="st1" d="M11.8,208.3c-3.7,0-6.3-1.3-7.9-4.1c-1.4-2.7-1.4-5.9,0.2-8.5L113.3,6.9
				c1.6-2.5,4.4-4.1,7.4-4c3.2,0,5.4,1.8,7,4.5l108.9,188.4c1.6,2.6,1.6,5.9,0,8.6c-1.6,2.5-4.4,4-7.4,3.9L11.8,208.3z M30.1,189.1
				h180.3L120.3,33L30.1,189.1z"/>
		</g>
		<path d="M120.4,61.9L120.4,61.9c11.7,0,21.3,9.5,21.3,21.3v79.3c0,11.7-9.5,21.3-21.3,21.3l0,0c-11.7,0-21.3-9.5-21.3-21.3V83.1
			C99.1,71.4,108.6,61.9,120.4,61.9z"/>
		<circle class="st2" cx="120.3" cy="83.2" r="18.5"/>
		<circle class="st3" cx="120.3" cy="122.7" r="18.5"/>
		<circle class="st4" cx="120.3" cy="162.3" r="18.5"/>
	</g>
</g>
</svg>
